app/src/content/assets/svg/user.svg

﻿<?xml version="1.0" encoding="utf-8"?>
<!DOCTYPE svg PUBLIC "-//W3C//DTD SVG 1.1//EN" "http://www.w3.org/Graphics/SVG/1.1/DTD/svg11.dtd">
<svg xmlns="http://www.w3.org/2000/svg" xmlns:xlink="http://www.w3.org/1999/xlink" version="1.1" baseProfile="full" width="76" height="76" viewBox="0 0 76.00 76.00" enable-background="new 0 0 76.00 76.00" xml:space="preserve">
	<path fill-opacity="1" stroke-width="0.2" stroke-linejoin="round" d="M 38,19C 43.5417,19 45.9167,22.1667 45.1174,28.8134C 45.8315,29.2229 46.3125,29.9928 46.3125,30.875C 46.3125,31.9545 45.5923,32.8658 44.6061,33.1546C 44.1941,34.623 43.5543,35.9229 42.75,36.9628L 42.75,41.9583C 45.3889,42.4861 47.5,42.75 50.6667,44.3333C 53.8333,45.9167 54.8889,47.3681 57,49.4792L 57,57L 19,57L 19,49.4792C 21.1111,47.3681 22.1667,45.9167 25.3333,44.3333C 28.5,42.75 30.6111,42.4861 33.25,41.9583L 33.25,36.9628C 32.4457,35.9229 31.8059,34.623 31.3939,33.1546C 30.4077,32.8658 29.6875,31.9545 29.6875,30.875C 29.6875,29.9928 30.1685,29.2229 30.8826,28.8134C 30.0833,22.1667 32.4583,19 38,19 Z "/>
</svg>

<svg xmlns="http://www.w3.org/2000/svg" baseProfile="full" width="76" height="76" viewBox="0 0 76.00 76.00"><path d="M38 19c5.542 0 7.917 3.167 7.117 9.813a2.374 2.374 0 0 1-.51 4.342c-.413 1.468-1.053 2.768-1.857 3.808v4.995c2.639.528 4.75.792 7.917 2.375 3.166 1.584 4.222 3.035 6.333 5.146V57H19v-7.52c2.111-2.112 3.167-3.563 6.333-5.147 3.167-1.583 5.278-1.847 7.917-2.375v-4.995c-.804-1.04-1.444-2.34-1.856-3.808a2.376 2.376 0 0 1-.511-4.342C30.083 22.167 32.458 19 38 19z"/></svg>
